src/images/single-assets/vUSDT.svg

<svg width="64" height="64" viewBox="0 0 64 64" fill="none" xmlns="http://www.w3.org/2000/svg">
<circle cx="32" cy="32" r="32" fill="#1F2028"/>
<mask id="mask0_8753_69613" style="mask-type:alpha" maskUnits="userSpaceOnUse" x="0" y="0" width="64" height="64">
<circle cx="32" cy="32" r="31.5" fill="#1F2028" stroke="white"/>
</mask>
<g mask="url(#mask0_8753_69613)">
<path opacity="0.8" fill-rule="evenodd" clip-rule="evenodd" d="M32 72.2117L0.960539 8.98305L9.03955 5.01699L32 51.7884L54.9605 5.017L63.0396 8.98306L32 72.2117Z" fill="white"/>
</g>
<circle opacity="0.8" cx="32" cy="32" r="28" fill="url(#paint0_linear_8753_69613)"/>
<circle cx="32" cy="32" r="24" fill="#1F2028"/>
<path d="M42.1525 21H21.8376V25.9044H29.5429V33.113H34.4473V25.9044H42.1525V21Z" fill="white"/>
<path d="M32.0406 33.8808C25.6666 33.8808 20.499 32.8721 20.499 31.6275C20.499 30.3832 25.6664 29.3742 32.0406 29.3742C38.4146 29.3742 43.5821 30.3832 43.5821 31.6275C43.5821 32.8721 38.4146 33.8808 32.0406 33.8808ZM45 32.0032C45 30.3984 39.1979 29.0977 32.0406 29.0977C24.8835 29.0977 19.0811 30.3984 19.0811 32.0032C19.0811 33.4164 23.5802 34.5938 29.5421 34.8546V45.2028H34.446V34.8587C40.4538 34.606 45 33.4237 45 32.0032Z" fill="white"/>
<defs>
<linearGradient id="paint0_linear_8753_69613" x1="59.2836" y1="48.3154" x2="-9.42124" y2="6.9903" gradientUnits="userSpaceOnUse">
<stop stop-color="#5433FF"/>
<stop offset="0.5" stop-color="#20BDFF"/>
<stop offset="1" stop-color="#5CFFA2"/>
</linearGradient>
</defs>
</svg>

<svg xmlns="http://www.w3.org/2000/svg" width="64" height="64" fill="none"><circle cx="32" cy="32" r="32" fill="#1F2028"/><mask id="a" width="64" height="64" x="0" y="0" maskUnits="userSpaceOnUse" style="mask-type:alpha"><circle cx="32" cy="32" r="31.5" fill="#1F2028" stroke="#fff"/></mask><g mask="url(#a)"><path fill="#fff" fill-rule="evenodd" d="M32 72.212.96 8.983l8.08-3.966L32 51.788 54.96 5.017l8.08 3.966z" clip-rule="evenodd" opacity=".8"/></g><circle cx="32" cy="32" r="28" fill="url(#b)" opacity=".8"/><circle cx="32" cy="32" r="24" fill="#1F2028"/><path fill="#fff" d="M42.153 21H21.838v4.904h7.705v7.209h4.904v-7.209h7.706z"/><path fill="#fff" d="M32.04 33.88c-6.373 0-11.541-1.008-11.541-2.253 0-1.244 5.167-2.253 11.542-2.253 6.374 0 11.541 1.01 11.541 2.254s-5.167 2.253-11.541 2.253M45 32.004c0-1.605-5.802-2.905-12.96-2.905-7.156 0-12.959 1.3-12.959 2.905 0 1.413 4.5 2.59 10.461 2.852v10.348h4.904V34.859C40.454 34.606 45 33.424 45 32.003"/><defs><linearGradient id="b" x1="59.284" x2="-9.421" y1="48.315" y2="6.99" gradientUnits="userSpaceOnUse"><stop stop-color="#5433FF"/><stop offset=".5" stop-color="#20BDFF"/><stop offset="1" stop-color="#5CFFA2"/></linearGradient></defs></svg>
